!!!OTL: ES THAET EIN KOENIG AUSREITEN
!!!ARE: Europa, Mitteleuropa, Deutschland, Altmark
!!!SCT: E0107B
!!!YEM: Copyright 1995, estate of Helmut Schaffrath.
**kern
*ICvox
*Ivox
*M3/8
*k[f#]
*G:
{8d
=1
4g
8g
=2
8g
8f#
8g
=3
8a
8g
8r
=4
4r}
{8d
=5
4g
8g
=6
8g
8f#
8g
=7
8a
8g
8r
=8
4r}
{8b
=9
4dd
8a
=10
8cc
8b
8a
=11
8g
8b
8b
=12
4a}
{8a
=13
8d
8d
8f#
=14
4d
8f#
=15
8a
8g
8f#
=16
4g}
==
!!!AGN: erzaehlendes Volks - Lied, Sage, Liebe, Leid, Tod, Ballade ?
!!!ONB: ESAC (Essen Associative Code) Database: ERK1
!!!AMT: simple triple
!!!AIN: vox
!!!EED: Helmut Schaffrath
!!!EEV: 1.0
*-
